X:1
T:I Will Tell It to Jesus My Lord
T:John Marchant Whyte, 1890
T:I Will Tell It to Jesus My Lord
T:Public Domain
T:Public Domain
T:Public Domain
C:John Marchant Whyte, 1890
Z:Public Domain
%%score ( 1 2 ) ( 3 4 )
L:1/8
M:6/4
K:F
V:1 treble 
V:2 treble 
V:3 bass 
V:4 bass 
V:1
 F | [FA][FA][FA][EB][EG][EB] | [Fc][Fc][Fc] [FA]2 F/[FG]/ | [FA][FA][FA][Ac][GB][FA] | %4
w: 1.~When|of temp- ta- tion bring sad-|ness and gloom, I will tell|to Je- sus my Lord; The|
w: 2.~When|on the hill- tops, a- way|from all sin, I will tell|to Je- sus my Lord; When|
w: 3.~When|y with toil- ing and rea-|dy to faint, I will tell|to Je- sus my Lord; He|
w: 4.~When|ness is dim- ming my path|to the sky, I will tell|to Je- sus my Lord; When|
 [EG]3- [EG]2 F | [FA][FA][FA][EB][EG][EB] | [Fc][Fc][Fc] [FA]2 [EG]/[FA]/ | %7
w: last * of|trea- sures borne out to the|tomb, I will tell it to|
w: joy- * ous|hap- py the sun- shine with-|in, I will tell it to|
w: ne- * ver|fus- es to hear my com-|plaint, I will tell it to|
w: help- * ers|fail me and com- forts shall|fly, I will tell it to|
 [GB][GB][GB][FA][CF][CG] | [CF]3- [CF]2 (A/B/) | [Fc][Fc][Fc][EB] [EG][FA]/[EB]/ | %10
w: Je- sus my Lord. This earth|hath * no *|row For to- day or to- mor-|
w: Je- sus my Lord. To know|I’m * for- *|en Is a fore- taste of Heav-|
w: Je- sus my Lord. I’ll cheer-|ful- * ly *|it, When I’ve Je- sus to share|
w: Je- sus my Lord. Though blurred|my * life’s *|es By my sin and its wag-|
 [Fc][Fc][Fc][FA][CF]F | [EB][EB][EB][EG][CE]C | [CF][CF][CG] [FA]2 (A/B/) | %13
w: row, But Je- sus hath known|and felt long a- go, And|it comes o’er me, And *|
w: en, And Je- sus is dear-|to me than be- fore, Such|ful- ness fills me, Such *|
w: it, His yoke it is ea-|His bur- den is light, When|be- comes drear- y, And *|
w: es, He’s yes- ter- day, now,|for- ev- er the same, I’ll|be for- sak- en, Tho’ *|
 [Fc][Fc][Fc][GB] [EG][FA]/[EB]/ | [Fc][Fc][Fc][FA] [CF][EG]/[FA]/ | [GB][GB][GB][FA][CF][CG] | %16
w: tempt- ed so sore- ly, I will|tell it to Je- sus my Lord.||
w: ec- sta- sy fills me, I will|tell it to Je- sus my Lord.|I will tell it to Je-|
w: foot- sore and wear- y, I will|tell it to Je- sus my Lord.||
w: life should be tak- en, I will|tell it to Je- sus my Lord.||
 [CF]3- [CF]2 ||"^Refrain" [FA]/[FA]/ | [GB]3 ([EG][FA])[GB] | [Ac]3 [FA]2 [FA] | %20
w: ||||
w: sus, *|to Je-|sus my * Lord;|I will tell|
w: ||||
w: ||||
 [GB]3 ([EG][FA])[GB] | [FA]3- [FA]2 [FA]/[FB]/ | c2 ^c [Fd]2 [FB] | %23
w: |||
w: it to * Je-|sus, * I will|tell it to Je-|
w: |||
w: |||
 ([FA]2 [EG]) [GB]2 [EG]/[EG]/ | [CF][CF][CF][CG][CG][CE] | [CF]3- [CF]2 |] %26
w: |||
w: my * Lord. * *|||
w: |||
w: |||
V:2
 F | x6 | x5 F/ x/ | x6 | x5 F | x6 | x6 | x6 | x5 F | x6 | x5 F | x5 C | x5 F | x6 | x6 | x6 | %16
w: times||it||earth’s||||sor-||it|when|I’m||||
w: out||it||and||||giv-||er|peace-|an||||
w: wear-||it||re-||||bear||sy,|life|I’m||||
w: dark-||it||shall||||pag-||and|not|my||||
 x5 || x | x6 | x6 | x6 | x6 | F3 x3 | x6 | x6 | x5 |] %26
w: ||||||||||
w: ||||||sus||||
w: ||||||||||
w: ||||||||||
V:3
 [F,A,] | [F,C][F,C][F,C][G,C][G,C][G,C] | [A,C][A,C][A,C] [F,C]2 [F,A,]/[F,B,]/ | %3
w: ~|~ ~ ~ ~ ~ ~|~ ~ ~ ~ ~ ~|
 [F,C][F,C][F,C][F,C][F,C][F,C] | [C,C]3- [C,C]2 [F,A,] | [F,C][F,C][F,C][G,C][G,C][G,C] | %6
w: ~ ~ ~ ~ ~ ~|~ * ~|~ ~ ~ ~ ~ ~|
 [A,C][A,C][A,C] [F,C]2 [F,C]/[F,C]/ | [C,C][C,C][C,C][C,C][C,A,][C,B,] | %8
w: ~ ~ ~ ~ ~ ~|~ ~ ~ ~ ~ ~|
 [F,A,]3- [F,A,]2 (F,/G,/) | [F,A,][F,A,][F,A,][C,G,] [C,C][F,C]/[G,C]/ | %10
w: ~ * ~ *|~ ~ ~ ~ ~ ~ ~|
 [A,C][A,C][A,C][F,C][F,A,][A,C] | [G,C][G,C][G,C][C,C][C,G,][E,B,] | %12
w: ~ ~ ~ ~ ~ ~|~ ~ ~ ~ ~ ~|
 [F,A,][F,A,][F,B,] [F,C]2 (F,/G,/) | [F,A,][F,A,][F,A,][C,G,] [C,C][F,C]/[G,C]/ | %14
w: ~ ~ ~ ~ ~ *|~ ~ ~ ~ ~ ~ ~|
 [A,C][A,C][A,C][F,C] [F,A,][F,C]/[F,C]/ | [C,C][C,C][C,C][C,C][C,A,][C,B,] | [F,A,]3- [F,A,]2 || %17
w: ~ ~ ~ ~ ~ ~ ~|~ ~ ~ ~ ~ I|will *|
 [F,C]/[F,C]/ | [C,C][C,C][C,C][C,C] [C,C][C,C]/[C,C]/ | [F,C][F,C][F,C][F,C] [F,C][F,C]/[F,C]/ | %20
w: tell it|to Je- sus, I will tell it|to Je- sus, I will tell it|
 [C,C][C,C][C,C][C,C][C,C][C,C] | [F,C][F,C][F,C] [F,C]2 [F,C]/[F,C]/ | %22
w: to Je- sus, to Je- sus|my Lord. I will tell it|
 [F,A,][F,A,][F,A,][B,,B,] [B,,B,][B,,D]/[B,,D]/ | [C,C][C,C][C,C][C,C] [C,C][C,B,]/[C,B,]/ | %24
w: to Je- sus, I will tell it|to Je- sus, * * * *|
 [F,A,][F,A,][F,A,][C,B,][C,B,][C,B,] | [F,A,]3- [F,A,]2 |] %26
w: ||
V:4
 x | x6 | x6 | x6 | x6 | x6 | x6 | x6 | x5 F, | x6 | x6 | x6 | x5 F, | x6 | x6 | x6 | x5 || x | %18
w: ||||||||~||||~||||||
 x6 | x6 | x6 | x6 | x6 | x6 | x6 | x5 |] %26
w: ||||||||

